X:1     %Music
T:Young Collins
S:Mr Greenfield, Largashall, Sussex, October 1910
Z:George Butterworth
B:The Ploughboy's Glory, Ed M Dawney, EFDSS, 1977
F:http://www.folkinfo.org/songs
M:4/4     %Meter
L:1/8     %
K:E
(EF) |G2 (GF) C2 F2 |E2 D2 E3 
w:Young_ Col-lins_ ear-ly in the morn 
F |G2 E2 C2 B2 | c2 (B^A) B3
w:Went whist-ling thro' some fields of_ corn
 B |Hc3 B A3 G |F2 (BA) G2
w: He spied a milk-maid neat and_ trim, 
 (ED) |C2 A2 (AG) (FE) | DF B2 HB3 
w:To_ milk her cow_ tripped_ ov-er the plain, 
B |e3 B c3 A |G2 F2 E4 |]
w:To milk her cow tripped over the plain. 